icons/powerpoint.svg

<svg xmlns="http://www.w3.org/2000/svg" viewBox="0 0 16 16"><path fill="#ea7130" d="M14.368 2.465h-5.1V1h-.9L1 2.306V13.7L8.278 15h.989v-1.628h4.773a1.4 1.4 0 0 0 .806-.158 1.96 1.96 0 0 0 .154-.985V3.1a.577.577 0 0 0-.632-.635M5.665 8.54a2.3 2.3 0 0 1-1.165.15v1.91l-.95-.082V5.301c.864.042 1.91-.35 2.626.313a2.02 2.02 0 0 1-.511 2.926m8.577 4.06H9.267v-1.019h3.817v-.651H9.267v-.814h3.817v-.651H9.269v-.957a2.19 2.19 0 0 0 1.91-.192 2.24 2.24 0 0 0 .98-1.778h-2.096V4.412l-.8.164V3.233h4.975V12.6Zm-3.861-8.528a2.27 2.27 0 0 1 2.095 2.137h-2.095zM4.5 6.182a.95.95 0 0 1 .913.228 1.2 1.2 0 0 1 .021 1.068 1.03 1.03 0 0 1-.908.342A19 19 0 0 1 4.5 6.182" data-iconColor="Powerpoint"/></svg>

<!--
  - The MIT License (MIT)
  -
  - Copyright (c) 2015-2024 Elior "Mallowigi" Boukhobza
  -
  - Permission is hereby granted, free of charge, to any person obtaining a copy
  - of this software and associated documentation files (the "Software"), to deal
  - in the Software without restriction, including without limitation the rights
  - to use, copy, modify, merge, publish, distribute, sublicense, and/or sell
  - copies of the Software, and to permit persons to whom the Software is
  - furnished to do so, subject to the following conditions:
  -
  - The above copyright notice and this permission notice shall be included in all
  - copies or substantial portions of the Software.
  -
  - THE SOFTWARE IS PROVIDED "AS IS", WITHOUT WARRANTY OF ANY KIND, EXPRESS OR
  - IMPLIED, INCLUDING BUT NOT LIMITED TO THE WARRANTIES OF MERCHANTABILITY,
  - FITNESS FOR A PARTICULAR PURPOSE AND NONINFRINGEMENT. IN NO EVENT SHALL THE
  - AUTHORS OR COPYRIGHT HOLDERS BE LIABLE FOR ANY CLAIM, DAMAGES OR OTHER
  - LIABILITY, WHETHER IN AN ACTION OF CONTRACT, TORT OR OTHERWISE, ARISING FROM,
  - OUT OF OR IN CONNECTION WITH THE SOFTWARE OR THE USE OR OTHER DEALINGS IN THE
  - SOFTWARE.
  -
  -->

<svg xmlns="http://www.w3.org/2000/svg" width="16px" height="16px" viewBox="0 0 16 16">
  <path fill="#EA7130" data-iconColor="Powerpoint"
        d="M14.368,2.465h-5.1V1h-0.9L1,2.306V13.7L8.278,15H9.267V13.372H14.04a1.4,1.4,0,0,0,.806-0.158A1.955,1.955,0,0,0,15,12.229V3.1A0.577,0.577,0,0,0,14.368,2.465ZM5.665,8.54A2.3,2.3,0,0,1,4.5,8.69l0,1.91L3.55,10.518l0-5.217c0.864,0.042,1.91-.35,2.626.313A2.021,2.021,0,0,1,5.665,8.54ZM14.242,12.6H9.267V11.581h3.817V10.93H9.267V10.116h3.817V9.465H9.269s0-.638,0-0.957a2.188,2.188,0,0,0,1.91-.192,2.239,2.239,0,0,0,.98-1.778H10.063V4.412l-0.8.164V3.233h4.975V12.6ZM10.381,4.072a2.27,2.27,0,0,1,2.095,2.137H10.381V4.072ZM4.5,6.182a0.953,0.953,0,0,1,.913.228,1.206,1.206,0,0,1,.021,1.068,1.027,1.027,0,0,1-.908.342C4.488,7.274,4.491,6.729,4.5,6.182Z"
  />
</svg>
